X:1
T:Isaac Watts, 1706 Eternal Wisdom    86. 86. (C. M.)
T:F Major Oliver Holden, 1800
T:Eternal Wisdom No copyright. Transcribed from Plain Psalmody, 1800.
%%score [ 1 2 3 ]
L:1/8
M:4/4
K:F
V:1 treble nm="Treble" snm="Tr."
V:2 treble-8 nm="Tenor" snm="T."
V:3 bass nm="Bass" snm="B."
V:1
 c4 | F4 B4 | (A3 G) F4 | (d4 f2 d2) | (c4 B4) | (A4 G4) | (G2 AB) A2 B2 | c4 =B4 | c8 | %9
w: 1.~E-|ter- nal|Wis- * dom,|Thee~ _ _|we *|praise, *|Thee * * the cre-|a- tion|sings;|
w: 2.~Place|me on|the * bright|wings~ _ _|of *|day, *|To * * tra- vel|with the|sun;|
 (=B3 c) B2 A2 | (A2 G2) (B2 d2) | (c2 B2) (A2 G2) | A6 c2 | (F2 A2 cf) dB | A4 G4 | F8 |] %16
w: With * Thy great|name, * rocks, *|hills, * and *|seas, And|heav'n's~ _ _ _ high *|pal- ace|rings.|
w: With * what a-|maz * shall *|I * sur- *|vey The|won~\-~ _ _ _ \-~ders *|Thou hast|done!|
V:2
 A4 | A4 G4 | (F3 G) A4 | (B4 d2 B2) | (A4 G4) | (F4 E4) | (B2 cd) c2 B2 | A4 F4 | G8 | G4 G2 F2 | %10
w: 3.~Thy|hand, how|wide * it|spread~ _ _|the *|sky! *|How * * glo- rious|to be-|hold!|Tinged with a|
w: 4.~There|Thou hast|hid * the|globes~ _ _|of *|light, *|Their * * end- less|cir- cles|run;|There the pale|
 (F2 E2) (G2 B2) | (A2 G2) (F2 E2) | F6 G2 | (A2 c2 f2) Bd | c4 B4 | A8 |] %16
w: blue * of *|heav'n- * ly *|dye, And|starred~ _ _ with *|spar- kling|gold.|
w: pla- * net *|rules * the *|night, And|day~ _ _ o- *|beys the|sun.|
V:3
 F,4 | F,4 C,4 | F,4 F,4 | B,,8 | C,8 | C,8 | C,4 F,2 G,2 | A,4 G,4 | C,8 | C,4 C,2 C,2 | %10
 (F,2 C,2) B,,4 | (A,,2 C,2) C,4 | F,6 E,2 | F,6 A,2 | C4 C,4 | F,8 |] %16

